X: 370
T: Bir Gönlüme Bir Hâl-i Perişanıma...
C: Tatyos Efendi
O: Turkey
F: http://compmusic.upf.edu/node/140
N: rast--sarki--senginsemai--bir_gonlume--tatyos_efendi
N: makam= rast
N: form= sarki
N: usul= senginsemai = 6/4
M: 6/4
L: 1/16
K: C _1/4B ^f  
Q: 1/4=66
%%MIDI tuningsystem comma53
G4 B4 d4 c3B A6z2  | e3d d3c B2c2 dcB^A B8  | \
w:  ARANAĞME  |   | 
D4 G4 B4 A3G F3E D4  | 
w:   | 
G3e d2c2 B3A A2{G}AG G8  | G4 B4 d4 c3B A6z2  | \
w:   |  ARANAĞME  | 
e3d d3c B2c2 dcB^A B8  | 
w:   | 
D4 G4 B4 A3G F3E D4  | G3e d2c2 B3A A2{G}AG G8  | \
w:   |   | 
G4 G4 G4 AGAB G6z2  | 
w:  Bir  gön lü me  *  *  *  bir   | 
A3B c2{e}dc B3A A2{B}AG G8  | z2GA B2c2 d2e2 d2c2 B2{G}AG d2{f}ed  | 
w:  hâl_ *  *  *  *  *  i  *  pe *  *  *  ri  |  şa *  *  *  nı *  ma  *  bak  | 
d8 dccB BAAG G8  | G4 G4 G4 AGAB G6z2  | \
w:  tım   SAZ  |  Bir  gön lü me  *  *  *  bir   | 
A3B c2{e}dc B3A A2{B}AG G8  | 
w:  hâl_ *  *  *  *  *  i  *  pe *  *  *  ri  | 
z2GA B2c2 d2e2 d2c2 B2{G}AG d2{f}ed  | \
w:  şa *  *  *  nı *  ma  *  bak  | 
d8 dccB BAAG d8  | 
w:  tım   SAZ  | 
e3d d3c c3B B2{A}BA A6B2  | c3e d3c B3A A2{B}AG G8  | 
w:  Za *  lim  *  se *  ni  *  *  *  yâd_  |  ey *  *  *  le *  ye  *  *  *  ah   | 
G2c2 B2A2 G2F2 E2F2 D4 B2{G}AG  | \
w:  ey *  *  *  le *  ye  *  çak  | 
G3A B2c2 d2{e}cB d2{f}ed d8  | 
w:  tım   SAZ  | 
e3d d3c c3B B2{A}BA A6B2  | c3e d3c B3A A2{B}AG G8  | 
w:  Za *  lim  *  se *  ni  *  *  *  yâd_  |  ey *  *  *  le *  ye  *  *  *  ah   | 
G2c2 B2A2 G2F2 E2F2 D4 B2{G}AG  | \
w:  ey *  *  *  le *  ye  *  çak  | 
G3A B2c2 d3c dcB^A B8  | 
w:  tım   SAZ  | 
G4 B4 d4 dcB^A B6z2  | d2_7/8ef e2d2 d3c dccB B8  | 
w:  Sen  yok sun  o  *  *  *  yok   |  ben  *  *  *  *  yal *  *  *  *  *  nız   | 
z2GA B2c2 d2e2 d2c2 B2{G}AG d2{f}ed  | \
w:  çıl *  *  *  dı *  ra *  cak  | 
d8 d3c dcB^A B8  | 
w:  tım   SAZ  | 
G4 B4 d4 dcB^A B6z2  | d2_7/8ef e2d2 d3c dccB B8  | 
w:  Sen  yok sun  o  *  *  *  yok   |  ben  *  *  *  *  yal *  *  *  *  *  nız   | 
z2GA B2c2 d2e2 d2c2 B2{G}AG d2{f}ed  | \
w:  çıl *  *  *  dı *  ra *  cak  | 
d8 dccB BAAG d8  | 
w:  tım   SAZ  | 
e3d d3c c3B B2{A}BA A6B2  | c3e d3c B3A A2{B}AG G8  | 
w:  Za *  lim  *  se *  ni  *  *  *  yâd_  |  ey *  *  *  le *  ye  *  *  *  ah   | 
G2c2 B2A2 G2F2 E2F2 D4 B2{G}AG  | \
w:  ey *  *  *  le *  ye  *  çak  | 
G3A B2c2 d2{e}cB d2{f}ed d8  | 
w:  tım   SAZ  | 
e3d d3c c3B B2{A}BA A6B2  | c3e d3c B3A A2{B}AG G8  | 
w:  Za *  lim  *  se *  ni  *  *  *  yâd_  |  ey *  *  *  le *  ye  *  *  *  ah   | 
G2c2 B2A2 G2F2 E2F2 D4 B2{G}AG  | \
w:  ey *  *  *  le *  ye  *  çak  | 
G3|
w:  tım    | 


